_includes/icons/color-vine.svg

<svg fill="#666" height="50" viewBox="0 0 48 48" width="50" xmlns="http://www.w3.org/2000/svg"><path d="m41 24c-1.101562 0-2.101562 0-3 0-4.898437 0-8.898437-3.101562-8.898437-8.898437 0-2.902344 1.296875-4.101563 2.898437-4.101563 1.5 0 2.699219 1 2.699219 3.699219 0 1.5-.398438 3.199219-.699219 4.199219 0 0 1.398438 3 5.601563 1.800781.898437-1.898438 1.398437-4.398438 1.398437-6.5 0-5.800781-3-9.199219-8.601562-9.199219-5.699219 0-9.398438 4.300781-9.398438 10 0 5.601563 3 10.398438 7.5 12.601563-1.898437 3.597656-4 7-6.5 9.398437-4.398437-5.300781-8.898437-12.5-10-26h-7c3.101563 22.699219 12.601563 30 15 31.398438 1.398438.800781 2.5.800781 3.800781.101562 2-1.101562 7.300782-6.800781 10.597657-13.5 1.402343 0 3-.199219 4.601562-.5z" fill="#00bfa5"/></svg>

<svg xmlns="http://www.w3.org/2000/svg" viewBox="0 0 48 48" width="50" height="50" fill="#666"><path d="M 41 24 C 39.898438 24 38.898438 24 38 24 C 33.101563 24 29.101563 20.898438 29.101563 15.101563 C 29.101563 12.199219 30.398438 11 32 11 C 33.5 11 34.699219 12 34.699219 14.699219 C 34.699219 16.199219 34.300781 17.898438 34 18.898438 C 34 18.898438 35.398438 21.898438 39.601563 20.699219 C 40.5 18.800781 41 16.300781 41 14.199219 C 41 8.398438 38 5 32.398438 5 C 26.699219 5 23 9.300781 23 15 C 23 20.601563 26 25.398438 30.5 27.601563 C 28.601563 31.199219 26.5 34.601563 24 37 C 19.601563 31.699219 15.101563 24.5 14 11 L 7 11 C 10.101563 33.699219 19.601563 41 22 42.398438 C 23.398438 43.199219 24.5 43.199219 25.800781 42.5 C 27.800781 41.398438 33.101563 35.699219 36.398438 29 C 37.800781 29 39.398438 28.800781 41 28.5 Z" fill="#00bfa5"/></svg>
